src/amo/components/CategoryIcon/img/abstract.svg

<svg xmlns="http://www.w3.org/2000/svg" width="64" height="64" viewBox="0 0 64 64">
  <g class="one" fill="#0F1126">
    <path d="M44.0888889,34.9481481 C40.2924426,34.9481481 37.2148148,31.8705204 37.2148148,28.0740741 C37.2148148,24.2776278 40.2924426,21.2 44.0888889,21.2 C47.8853352,21.2 50.962963,24.2776278 50.962963,28.0740741 C50.962963,31.8705204 47.8853352,34.9481481 44.0888889,34.9481481 Z M44.0888889,32.5777778 C46.5762158,32.5777778 48.5925926,30.5614009 48.5925926,28.0740741 C48.5925926,25.5867472 46.5762158,23.5703704 44.0888889,23.5703704 C41.601562,23.5703704 39.5851852,25.5867472 39.5851852,28.0740741 C39.5851852,30.5614009 41.601562,32.5777778 44.0888889,32.5777778 Z M13.7481481,33.0518519 C10.9989974,33.0518519 8.77037037,30.8232248 8.77037037,28.0740741 C8.77037037,25.3249233 10.9989974,23.0962963 13.7481481,23.0962963 C16.4972989,23.0962963 18.7259259,25.3249233 18.7259259,28.0740741 C18.7259259,30.8232248 16.4972989,33.0518519 13.7481481,33.0518519 Z M13.7481481,30.6814815 C15.1881795,30.6814815 16.3555556,29.5141054 16.3555556,28.0740741 C16.3555556,26.6340427 15.1881795,25.4666667 13.7481481,25.4666667 C12.3081168,25.4666667 11.1407407,26.6340427 11.1407407,28.0740741 C11.1407407,29.5141054 12.3081168,30.6814815 13.7481481,30.6814815 Z M17.5407407,46.3259259 C14.79159,46.3259259 12.562963,44.0972989 12.562963,41.3481481 C12.562963,38.5989974 14.79159,36.3703704 17.5407407,36.3703704 C20.2898915,36.3703704 22.5185185,38.5989974 22.5185185,41.3481481 C22.5185185,44.0972989 20.2898915,46.3259259 17.5407407,46.3259259 Z M17.5407407,43.9555556 C18.9807721,43.9555556 20.1481481,42.7881795 20.1481481,41.3481481 C20.1481481,39.9081168 18.9807721,38.7407407 17.5407407,38.7407407 C16.1007094,38.7407407 14.9333333,39.9081168 14.9333333,41.3481481 C14.9333333,42.7881795 16.1007094,43.9555556 17.5407407,43.9555556 Z M30.8148148,52.0148148 C28.0656641,52.0148148 25.837037,49.7861878 25.837037,47.037037 C25.837037,44.2878863 28.0656641,42.0592593 30.8148148,42.0592593 C33.5639656,42.0592593 35.7925926,44.2878863 35.7925926,47.037037 C35.7925926,49.7861878 33.5639656,52.0148148 30.8148148,52.0148148 Z M30.8148148,49.6444444 C32.2548462,49.6444444 33.4222222,48.4770684 33.4222222,47.037037 C33.4222222,45.5970057 32.2548462,44.4296296 30.8148148,44.4296296 C29.3747835,44.4296296 28.2074074,45.5970057 28.2074074,47.037037 C28.2074074,48.4770684 29.3747835,49.6444444 30.8148148,49.6444444 Z"/>
  </g>
  <g class="two" fill="#0F1126">
    <path d="M4.74074074,30.0651852 C4.74074074,44.5087532 16.4929546,56.2340741 31.0044444,56.2340741 C42.8279988,56.2340741 53.0403953,48.4112777 56.1981653,37.2771482 C57.9930673,29.9343672 56.7150125,22.198772 50.7473093,19.2144877 C46.1369546,17.0125273 42.1079993,17.2901315 35.3891403,19.3858124 C30.3024872,20.9723916 30.0466998,21.0444296 28.239644,21.2188063 C25.3847455,21.4942972 23.0475577,20.7121627 21.2385185,18.4977778 C19.7857933,16.5608108 19.9335059,15.0955571 20.9824554,11.5929661 C21.1380731,11.0733364 21.2198521,10.788728 21.2968907,10.4887186 C21.6315789,9.1853514 21.5992884,8.54009455 21.2385185,8.06814815 C20.5596996,7.16305631 17.8174943,7.26387268 15.8844165,8.57477564 C8.95338477,13.5255126 4.74074074,21.4565798 4.74074074,30.0651852 Z M0,30.0651852 C0,19.9020463 4.97020964,10.5447242 13.1757003,4.68450187 C16.9997161,2.08963401 22.5281212,1.88638383 25.0177371,5.20604419 C26.4478055,7.07613359 26.5489156,9.09660337 25.8886581,11.6678263 C25.7916222,12.0457106 25.6966026,12.3763992 25.5239132,12.9530335 C24.9428564,14.8932646 24.8857696,15.4595446 24.9693803,15.5745475 C26.1601472,17.0299292 27.4066055,16.9096489 33.9775277,14.860111 C41.7375102,12.4396931 46.8281271,12.0889379 52.8289507,14.9554318 C61.4287404,19.2553267 63.0641626,29.1539347 60.7812589,38.4864461 C57.0265214,51.7323256 44.9607638,60.9748148 31.0044444,60.9748148 C13.877144,60.9748148 0,47.1294263 0,30.0651852 Z"/>
  </g>
</svg>

<svg xmlns="http://www.w3.org/2000/svg" width="64" height="64"><path d="M44.089 34.948a6.874 6.874 0 1 1 0-13.748 6.874 6.874 0 0 1 0 13.748Zm0-2.37a4.504 4.504 0 1 0 0-9.008 4.504 4.504 0 0 0 0 9.008Zm-30.34.474a4.978 4.978 0 1 1 0-9.956 4.978 4.978 0 0 1 0 9.956Zm0-2.37a2.607 2.607 0 1 0 0-5.215 2.607 2.607 0 0 0 0 5.214Zm3.792 15.644a4.978 4.978 0 1 1 0-9.956 4.978 4.978 0 0 1 0 9.956Zm0-2.37a2.607 2.607 0 1 0 0-5.215 2.607 2.607 0 0 0 0 5.215Zm13.274 8.059a4.978 4.978 0 1 1 0-9.956 4.978 4.978 0 0 1 0 9.956Zm0-2.37a2.607 2.607 0 1 0 0-5.215 2.607 2.607 0 0 0 0 5.214Z" class="one" fill="#0F1126"/><path d="M4.74 30.065c0 14.444 11.753 26.17 26.264 26.17 11.824 0 22.036-7.824 25.194-18.958 1.795-7.343.517-15.078-5.45-18.063-4.611-2.201-8.64-1.924-15.359.172-5.087 1.586-5.342 1.658-7.15 1.833-2.854.275-5.191-.507-7-2.721-1.453-1.937-1.305-3.402-.257-6.905.156-.52.238-.804.315-1.104.335-1.304.302-1.949-.058-2.42-.68-.906-3.422-.805-5.355.506-6.93 4.95-11.143 12.882-11.143 21.49Zm-4.74 0c0-10.163 4.97-19.52 13.176-25.38C17 2.09 22.528 1.886 25.018 5.206c1.43 1.87 1.53 3.89.87 6.462-.096.378-.191.708-.364 1.285-.581 1.94-.638 2.507-.555 2.622 1.191 1.455 2.438 1.335 9.009-.715 7.76-2.42 12.85-2.771 18.851.095 8.6 4.3 10.235 14.199 7.952 23.531a30.896 30.896 0 0 1-29.777 22.489C13.877 60.975 0 47.129 0 30.065Z" class="two" fill="#0F1126"/></svg>
